X: 29031
T: Ned Connor's
R: polka
M: 2/4
K: Edorian
|E>F GA|Be dB|A>F AF|EF D2|
E>F GA|Be dB|AF DF|1 FE ED:|2 FE Ee||
|:e/f/e/d/ Bd|ed B2|e>d BA|FE DB,/D/|
E>F GA|Be dB|AF DF|1 FE Ee:|2 FE ED||

